images/social/twitch.svg

<svg xmlns="http://www.w3.org/2000/svg" width="287.11" height="300" viewBox="0 0 287.11 300"><defs><style>.a{fill:#333;}</style></defs><title>twitch</title><path class="a" d="M26.48,0h267c.1,60.87,0,121.74.06,182.6C267.21,208.55,241.35,235,215,260.88c-18.66-.24-37.33,0-56-.13a3.93,3.93,0,0,0-3.79,1.41c-12.44,12.59-25.11,25-37.43,37.67-12.71.17-25.42-.16-38.12.17H78.39c-.13-13.08,0-26.16-.06-39.23-24,.08-47.91-.08-71.87.08q0-103.91,0-207.8c6.58-17.66,13.13-35.45,20-53M52.35,26.12q0,94.5,0,189c19.58.11,39.17,0,58.75.07-.17,13.08.3,26.18-.26,39.25,13.09-13.13,26.28-26.17,39.28-39.38,23.95.18,47.9.11,71.85,0,15-15.38,30.49-30.29,45.43-45.72-.19-47.77,0-95.55-.1-143.32C195.64,26.26,124,26.13,52.35,26.12Z" transform="translate(-6.44)"/><path class="a" d="M124.16,78.27c8.63.08,17.26.06,25.89,0,0,26.11.23,52.23-.1,78.33-8.6-.17-17.2-.08-25.8,0Q124.09,117.42,124.16,78.27Z" transform="translate(-6.44)"/><path class="a" d="M195.62,78.19c8.69.23,17.39.14,26.09,0q.13,39.17,0,78.35c-8.73-.11-17.46-.06-26.18,0C195.62,130.44,195.46,104.32,195.62,78.19Z" transform="translate(-6.44)"/></svg>

<?xml version="1.0" encoding="UTF-8" ?>
<!DOCTYPE svg PUBLIC "-//W3C//DTD SVG 1.1//EN" "http://www.w3.org/Graphics/SVG/1.1/DTD/svg11.dtd">
<svg width="300pt" height="300pt" viewBox="0 0 300 300" version="1.1" xmlns="http://www.w3.org/2000/svg">
<g>
<path fill="#fff" opacity="1.00" d=" M 26.48 0.00 L 293.49 0.00 C 293.59 60.87 293.48 121.74 293.55 182.60 C 267.21 208.55 241.35 234.99 214.97 260.88 C 196.31 260.64 177.64 260.89 158.97 260.75 C 157.51 260.54 156.12 260.97 155.18 262.16 C 142.74 274.75 130.07 287.12 117.75 299.83 C 105.04 300.00 92.33 299.67 79.63 300.00 L 78.39 300.00 C 78.26 286.92 78.37 273.84 78.33 260.77 C 54.37 260.85 30.42 260.69 6.46 260.85 C 6.47 191.58 6.39 122.31 6.50 53.05 C 13.08 35.39 19.63 17.60 26.48 0.00 M 52.35 26.12 C 52.36 89.12 52.41 152.12 52.33 215.12 C 71.91 215.23 91.50 215.08 111.08 215.19 C 110.91 228.27 111.38 241.37 110.82 254.44 C 123.91 241.31 137.10 228.27 150.10 215.06 C 174.05 215.24 198.00 215.17 221.95 215.10 C 236.95 199.72 252.44 184.81 267.38 169.38 C 267.19 121.61 267.39 73.83 267.28 26.06 C 195.64 26.26 123.99 26.13 52.35 26.12 Z" />
<path fill="#fff" opacity="1.00" d=" M 124.16 78.27 C 132.79 78.35 141.42 78.33 150.05 78.28 C 150.08 104.39 150.28 130.51 149.95 156.61 C 141.35 156.44 132.75 156.53 124.15 156.57 C 124.11 130.47 124.11 104.37 124.16 78.27 Z" />
<path fill="#fff" opacity="1.00" d=" M 195.62 78.19 C 204.31 78.42 213.01 78.33 221.71 78.24 C 221.80 104.35 221.78 130.47 221.72 156.59 C 212.99 156.48 204.26 156.53 195.54 156.56 C 195.62 130.44 195.46 104.32 195.62 78.19 Z" />
</g>
</svg>
